X: 136012
T: The DONNYBROOK BOY
Q: "Irish Jig."
R: Jig.
%R: jig
B: James Kerr "Merry Melodies" v.1 p.36 s.0 #12
Z: 2016 John Chambers <jc:trillian.mit.edu>
N: The initial pickup notes conflict with the rhythms of repeats; not fixed.
M: 6/8
L: 1/8
K: D
(vfg |\
a2)vd fed | va2vd fed | vb2vg ua2uf | efe efg |\
a2d fed | a2d fed | b2g a2f | ede d2 :|
|: uA |\
dcd efg | fed cBA | BdB AFD | EFE uE2uA |\
dcd efg | fed cBA | BdB AFD | EFE D2 :|

%%sep 1 1 500
%%sep 1 1 500

